X:1
T:Title
%%score ( 1 2 ) { 3 | 4 }
L:1/8
Q:1/4=85
M:4/4
K:C
V:1 treble nm="Grand Piano, Soprano"
V:2 treble 
V:3 bass nm="Choir Pad, We’ll Gather There in Glory"
V:4 bass 
V:1
 [EG][Ec][Fc][Ec] [_Ec] [=Ec]2 [GB] | [FA][EG]- [EG]/[FA]/[EG] [CE] [EG]3 | %2
w: By~James~McGranahan * * * * * *||
 [EG][FA][FA][FA] [FA] [Ac]2 [GB] | [FA][EG][Gc][FB]- [FB]/[Ec]/ [Gd]3 | %4
w: ||
 [FG][Ec][Fc][Ec] [_Ec] [=Ec]2 [GB] | [FA][EG]- [EG]/[FA]/[EG] [CE] [EG]3 | %6
w: ||
 [EG][FA][FA][^Fc] [Fc][GB] [Gd]2 | [Ec][FB][FB][FA]- [FA]/[FB]/ [Ec]2 [CE] | %8
w: ||
 [DF][EG]/[EG]/- [EG][EG]- [EG]/[EG]/ [EG]2 [Ec]- | %9
w: |
 [Ec][FA]/[FA]/- [FA][FA]- [FA]/[FA]/ [FA]2 [Fc]- | [Fc][DB][DB][DB] [DB][FB][FB][FA] | %11
w: ||
 [FB][Ec]- [Ec]/[Fd]/[Ec] [FA] [EG]2 [CE] | [DF][EG]/[EG]/- [EG][EG]- [EG]/[EG]/ [EG]2 [Ec]- | %13
w: ||
 [Ec][FA]/[FA]/- [FA][FA]- [FA]/[FA]/[FA] [Fc][Ec] | [Fd][Ge][Ge][Fd] [Ec][Fd][Fd][Ec] | %15
w: ||
 z c3- c4 |] %16
w: |
V:2
 x8 | x8 | x8 | x8 | x8 | x8 | x8 | x8 | x8 | x8 | x8 | x8 | x8 | x8 | x8 | [DB] E2 E- E/F/ E3 |] %16
V:3
 CG,A,G, ^F, G,2[K:treble] C | CC- C/C/C G, C3 | CCCC C C2 C | CCC[K:bass]G,- G,/G,/ B,3 | %4
 G,G,A,G, ^F, G,2[K:treble] C | CC- C/C/C G, C3 | CCCD DD[K:bass] B,2 | G,G,G,G,- G,/G,/ G,2 G, | %8
 G,[K:treble]C/C/- CC- C/C/ C2 C- | CC/C/- CC- C/C/ C2[K:bass] A,- | A,G,G,G, G,G,G,G, | %11
 G,G,- G,/G,/G,[K:treble] C C2 G, | G,C/C/- CC- C/C/ C2 C- | CC/C/- CC- C/C/C[K:bass] A,G, | %14
 B,CCB, CA,A,G, | G, G,2 G,- G,/A,/ G,3 |] %16
V:4
 C,C,C,C, C, C,2 C, | C,C,- C,/C,/C, C, C,3 | C,F,F,F, F, F,2 F, | F,C,E,D,- D,/C,/ G,,3 | %4
 B,,C,C,C, C, C,2 C, | C,C,- C,/C,/C, C, C,3 | C,F,F,D, D,G, G,2 | z G,,G,,G,,- G,,/G,,/ C,2 C, | %8
 C,C,/C,/- C,C,- C,/C,/ C,2 C,- | C,F,/F,/- F,F,- F,/F,/ F,2 F,- | F,2 z2 z G,,G,,G,, | %11
 G,,C,- C,/C,/C, C, C,2 C, | C,C,/C,/- C,C,- C,/C,/ C,2 C,- | C,F,/F,/- F,F,- F,/F,/F, .F,2 | %14
 .G,2 z G, A,F, .F,2 | z C,3- C,4 |] %16

